symbols/web/3k/materialsymbolsrounded/3k_wght100_40px.svg

<svg xmlns="http://www.w3.org/2000/svg" height="40" width="40"><path d="M21.958 24.333q.25 0 .396-.166.146-.167.146-.375v-3.459l4.083 3.917q.084.083.188.083h.146q.458 0 .562-.333.104-.333-.187-.625l-3.667-3.458 3.75-3.292q.25-.292.146-.625-.104-.333-.521-.333-.125 0-.208.041l-.167.084-4.125 3.791v-3.416q0-.209-.146-.354-.146-.146-.396-.146t-.396.146q-.145.145-.145.395v7.625q0 .167.166.334.167.166.375.166Zm-9.916 0H16.5q.458 0 .792-.312.333-.313.333-.813v-6.416q0-.5-.333-.813-.334-.312-.792-.312H12q-.167 0-.312.146-.146.145-.146.395t.146.396q.145.146.354.146h4.5v2.708h-2.75q-.25 0-.396.146-.146.146-.146.396t.167.396q.166.146.416.146h2.709v2.708H12q-.167 0-.312.146-.146.146-.146.396t.146.396q.145.145.354.145Zm-2.542 8.5q-1 0-1.667-.666-.666-.667-.666-1.667v-21q0-1 .666-1.667.667-.666 1.667-.666h21q1 0 1.667.666.666.667.666 1.667v21q0 1-.666 1.667-.667.666-1.667.666Zm0-1h21q.583 0 .958-.375t.375-.958v-21q0-.583-.375-.958t-.958-.375h-21q-.583 0-.958.375t-.375.958v21q0 .583.375.958t.958.375ZM8.167 8.167V31.833 8.167Z"/></svg>

<svg xmlns="http://www.w3.org/2000/svg" height="40" width="40"><path d="M21.958 24.333Q22.208 24.333 22.354 24.167Q22.5 24 22.5 23.792V20.333L26.583 24.25Q26.667 24.333 26.771 24.333Q26.875 24.333 26.917 24.333Q27.375 24.333 27.479 24Q27.583 23.667 27.292 23.375L23.625 19.917L27.375 16.625Q27.625 16.333 27.521 16Q27.417 15.667 27 15.667Q26.875 15.667 26.792 15.708Q26.708 15.75 26.625 15.792L22.5 19.583V16.167Q22.5 15.958 22.354 15.813Q22.208 15.667 21.958 15.667Q21.708 15.667 21.562 15.813Q21.417 15.958 21.417 16.208V23.833Q21.417 24 21.583 24.167Q21.75 24.333 21.958 24.333ZM12.042 24.333H16.5Q16.958 24.333 17.292 24.021Q17.625 23.708 17.625 23.208V16.792Q17.625 16.292 17.292 15.979Q16.958 15.667 16.5 15.667H12Q11.833 15.667 11.688 15.813Q11.542 15.958 11.542 16.208Q11.542 16.458 11.688 16.604Q11.833 16.75 12.042 16.75H16.542V19.458H13.792Q13.542 19.458 13.396 19.604Q13.25 19.75 13.25 20Q13.25 20.25 13.417 20.396Q13.583 20.542 13.833 20.542H16.542V23.25H12Q11.833 23.25 11.688 23.396Q11.542 23.542 11.542 23.792Q11.542 24.042 11.688 24.188Q11.833 24.333 12.042 24.333ZM9.5 32.833Q8.5 32.833 7.833 32.167Q7.167 31.5 7.167 30.5V9.5Q7.167 8.5 7.833 7.833Q8.5 7.167 9.5 7.167H30.5Q31.5 7.167 32.167 7.833Q32.833 8.5 32.833 9.5V30.5Q32.833 31.5 32.167 32.167Q31.5 32.833 30.5 32.833ZM9.5 31.833H30.5Q31.083 31.833 31.458 31.458Q31.833 31.083 31.833 30.5V9.5Q31.833 8.917 31.458 8.542Q31.083 8.167 30.5 8.167H9.5Q8.917 8.167 8.542 8.542Q8.167 8.917 8.167 9.5V30.5Q8.167 31.083 8.542 31.458Q8.917 31.833 9.5 31.833ZM8.167 8.167Q8.167 8.167 8.167 8.542Q8.167 8.917 8.167 9.5V30.5Q8.167 31.083 8.167 31.458Q8.167 31.833 8.167 31.833Q8.167 31.833 8.167 31.458Q8.167 31.083 8.167 30.5V9.5Q8.167 8.917 8.167 8.542Q8.167 8.167 8.167 8.167Z"/></svg>
